X:437
T:Reel 437
M:4/4
K:Gmaj
L:1/8
dc|BAGA Bcdg|fefg agfe|BAGA Bcdg||fedc BGBc:||2 (3fed cA BGGz| (3bc'b gb c'bgb| (3aba fa gaga| (3bc'b gb  (3bc'b gb| (3aba fa gbag| (3fgf af gfaf|faab c'afa| (3bc'b c'a bgag|fdcA BGGz|
